X: 31738
T: Pat McGinley's
R: jig
M: 6/8
K: Dmajor
|:E3 B2 A|ABd f2 e|edB BAF|AFD D2 F|
E3 BAF|ABd faf|efe dBA|Bee e3:|
|:g2 e e/f/g/e|fd^c def|g2 e agf|g2 a bge|
g2 e ege|fdd dBA|Adf afd|fee e3:|
|:E/F/GE F2 D|G2E AGE|DED def|afd cAG|
E/F/GE F2 D|G2 E A2 f|afd B/^c/de|fee e3:|
|:bge ege|Beg bge|afd fed|fbf afd|
bge ege|B3 gfe|fed BAF|EFE E3:|

